!!!!SEGMENT: pl-kk--kk-i-81--004_anonim--missa-pastoralis-benedictus.krn
!!!cenid: 17xx:2306
!!!COM: Anonim
!!!COM-rismID:
!!!CDT:
!!!CNT:
!!!OPR: Missa Pastoralis
!!!OTL: Benedictus
!!!OMV: 004
!!!PDT:
!!!AGN: Sacred; Mass
!!!SMS-siglum: PL-Kk
!!!SMS-shelfmark: Kk.I.81
!!!SMS-shelfwork: 001-004 M
!!!SMS-variant:
!!!SMS-altvar:
!!!NIFC-rismSourceID: 1001155824
!!!NIFC-islandoraID: pl-kk:15852
!!!URL-pdf-islandora: https://repozytorium.nifc.pl/islandora/object/pl-kk%3A15852/datastream/PDF/view
!!!URL-scan:
!!!ONB-nifc: UWAGA: części Mszy: 1. Kyrie, 2. Et in terra, 3. Sanctus, 4. Benedictus, 5. Agnus Dei.
!!!AIN: 1 alto 2 empty 1 tenor 1 vox
!!!key:
**kern	**text	**kern	**text	**kern	**text	**kern	**text	**kern	**text
*part5	*part5	*part4	*part4	*part3	*part3	*part2	*part2	*part1	*part1
*staff5	*staff5	*staff4	*staff4	*staff3	*staff3	*staff2	*staff2	*staff1	*staff1
*Iempty	*	*Iempty	*	*Itenor	*	*Ialto	*	*Ivox	*
*I"Baſso eripieno	*	*I"Baſso	*	*I"Tenore	*	*I"Alto	*	*I"Canto	*
*I'B rip	*	*I'B	*	*I'T	*	*I'A	*	*I'C	*
*clefF4	*	*clefF4	*	*clefC4	*	*clefC3	*	*clefC1	*
*k[]	*	*k[]	*	*k[]	*	*k[]	*	*k[]	*
*C:	*	*C:	*	*C:	*	*C:	*	*C:	*
*M3/2	*	*M3/2	*	*M3/2	*	*M3/2	*	*M3/2	*
=1	=1	=1	=1	=1	=1	=1	=1	=1	=1
*	*	*	*	*	*	*2\right	*	*2\right	*
!LO:N:vis=0	!	!LO:N:vis=0	!	!	!	!	!	!	!
0.r	.	0.r	.	1G/	Be-	(2e\	Be-	(2cc\	Be-
.	.	.	.	.	.	2d\)	.	2b\)	.
*	*	*	*	*2\right	*	*	*	*	*
.	.	.	.	2c\	-ne-	2f\	-ne-	2a\	-ne-
=2	=2	=2	=2	=2	=2	=2	=2	=2	=2
.	.	.	.	1c\	-di-	2f\	-di-	(<4a\	-di-
.	.	.	.	.	.	.	.	4g\)	.
.	.	.	.	.	.	2e\	-ctus	2g\	-ctus
.	.	.	.	2c\	-ctus	2e\	qui	2g\	qui
=3	=3	=3	=3	=3	=3	=3	=3	=3	=3
.	.	.	.	.	.	.	.	8qqb/	.
1.r	.	1.r	.	2d\	qui	(2f\	ve-	4a\	ve-
.	.	.	.	.	.	.	.	8g\L	.
.	.	.	.	.	.	.	.	8f\J	.
.	.	.	.	2c\	ve-	1g\)	.	2e/	.
.	.	.	.	2B\	.	.	.	2d/	.
=4	=4	=4	=4	=4	=4	=4	=4	=4	=4
4r	.	4r	.	2c\	-nit	2g\	-nit	2e/	-nit
4C/	qui	4C/	qui	.	.	.	.	.	.
4E/	ve-	4E/	ve-	2r	.	2r	.	2r	.
4C/	.	4C/	.	.	.	.	.	.	.
4E\	.	4E\	.	2r	.	2r	.	2r	.
4G\	.	4G\	.	.	.	.	.	.	.
=5	=5	=5	=5	=5	=5	=5	=5	=5	=5
*2\right	*	*2\right	*	*	*	*	*	*	*
2c\	-nit	2c\	-nit	1G/	be-	(2e\	Be-	2cc\	Be-
2r	.	2r	.	.	.	2d\)	.	2b\	.
2r	.	2r	.	2c\	-ne-	2f#X\	-ne-	2a\	-ne-
=6	=6	=6	=6	=6	=6	=6	=6	=6	=6
!LO:N:vis=0	!	!LO:N:vis=0	!	!	!	!	!	!	!
0.r	.	0.r	.	2B\	-di-	2g\	-di-	2g\	-di-
.	.	.	.	2d\	-ctus	2g\	-ctus	2b\	-ctuſ
.	.	.	.	2B\	qui	2g\	qui	2dd\	qui
=7	=7	=7	=7	=7	=7	=7	=7	=7	=7
.	.	.	.	8qqd/	.	.	.	.	.
.	.	.	.	4c\	ve-	(2a\	ve-	4ee\	ve-
.	.	.	.	8B\L	.	.	.	8dd\L	.
.	.	.	.	8A\J	.	.	.	8cc\J	.
.	.	.	.	2G/	.	2g\	.	2b\	.
.	.	.	.	2F#X/	.	2f#X\)	.	2a\	.
!	!	!	!	!	!	!LO:LB:g=original	!	!LO:LB:g=original	!
=8	=8	=8	=8	=8	=8	=8	=8	=8	=8
4r	.	4r	.	2G/	-nit	2g\	-nit	2g\	-nit
4GG/	in	4GG/	in	.	.	.	.	.	.
4BB/	no-	4BB/	no-	2r	.	2r	.	2r	.
4D/	-mi-	4D/	-mi-	.	.	.	.	.	.
2G\	-ne	2G\	-ne	2r	.	2r	.	2r	.
!	!	!	!	!LO:LB:g=original	!	!	!	!	!
=9	=9	=9	=9	=9	=9	=9	=9	=9	=9
4C/	be-	(>4C/	be-	1G/	be-	1e\	be-	1cc\	be-
4E/	.	4E/	.	.	.	.	.	.	.
4G/	.	4G/	.	.	.	.	.	.	.
4B-X\	.	4B-X\	.	.	.	.	.	.	.
4G\	.	4G\)	.	2G/	-ne-	2e\	-ne-	2b-X\	-ne-
4E\	-ne-	4E\	-ne-	.	.	.	.	.	.
!	!	!LO:LB:g=original	!	!	!	!	!	!	!
=10	=10	=10	=10	=10	=10	=10	=10	=10	=10
2F\	-dic-	2F\	-dic-	1c\	-di-	(2f\	-dic-	2a/	-di-
2C/	.	2C/	.	.	.	2e\)	.	2g/	.
2F\	-tus	2F\	-tus	2c\	-ctus	2f\	-tus	2f/	-ctus
!LO:LB:g=original	!	!	!	!	!	!	!	!	!
=11	=11	=11	=11	=11	=11	=11	=11	=11	=11
4D\	be-	4D\	be-	[1A\	qui	2f#X\	qui	2dd\	qui
4F#X\	.	4F#X\	.	.	.	.	.	.	.
4A\	.	4A\	.	.	.	1f#\	.	4dd\	ve-
4c\	.	4c\	.	.	.	.	.	8cc\L	.
.	.	.	.	.	.	.	.	8dd\J	.
4A\	.	4A\	.	2A\]	.	.	.	4ee\	.
4F#\	-ne-	4F#\	-ne-	.	.	.	.	8dd\L	.
.	.	.	.	.	.	.	.	8cc\J	.
=12	=12	=12	=12	=12	=12	=12	=12	=12	=12
2G\	-dic-	2G\	-dic-	1d\	ve-	(2g\	ve-	2b\	.
2D\	.	2D\	.	.	.	2f\)	.	2a\	.
2G\	-tus	2G\	-tus	2d\	-nit	2g\	-nit	2g\	-nit
=13	=13	=13	=13	=13	=13	=13	=13	=13	=13
4G\	be-	4G\	be-	4G/	be-	4g\	be-	4g/	be-
4G\	-ne-	4G\	-ne-	4G/	-ne-	4g\	-ne-	4g/	-ne-
2E\	-dic-	2E\	-dic-	2E/	-di-	2e\	-di-	2e/	-di-
4C/	-tus	4C\	-tus	4C/	-ctus	4c\	-ctus	4c/	-ctus
4C/	qui	4C\	qui	4C/	qui	4c\	qui	4c/	qui
=14	=14	=14	=14	=14	=14	=14	=14	=14	=14
1GG/	ve-	1GG/	ve-	1G/	ve-	1d\	ve-	1f/	ve-
2C/	-nit	2C/	-nit	2G/	-nit	2c\	-nit	2e/	-nit
=15	=15	=15	=15	=15	=15	=15	=15	=15	=15
2C/	in	2C/	in	2c\	in	2e\	in	2g/	in
2C/	no-	2C/	no-	2c\	no-	2e\	no-	2g/	no-
4C/	-mi-	4C/	-mi-	4c\	-mi-	4e\	-mi-	4g/	-mi-
4C/	-ne	4C/	-ne	4c\	-ne	4e\	-ne	4g/	-ne
!	!	!	!	!	!	!LO:LB:g=original	!	!LO:LB:g=original	!
=16	=16	=16	=16	=16	=16	=16	=16	=16	=16
2.F\	Do-	2.F\	Do-	2.B\	Do-	2.d\	Do-	2.g/	Do-
4F\	-mi-	4F\	-mi-	4B\	-mi-	4d\	-mi-	4g/	-mi-
2C/	-ni	2C/	-ni	2c\	-ni	2e\	-ni	2g/	-ni
!	!	!LO:LB:g=original	!	!	!	!	!	!	!
=17	=17	=17	=17	=17	=17	=17	=17	=17	=17
2C/	in	2C/	in	2G/	in	2e\	in	2cc\	in
2C/	no-	2C/	no-	2G/	no-	2e\	no-	2cc\	no-
4C/	-mi-	4C/	-mi-	4G/	-mi-	4e\	-mi-	4cc\	-mi-
4C/	-ne	4C/	-ne	4G/	-ne	4e\	-ne	4cc\	-ne
!LO:LB:g=original	!	!	!	!LO:LB:g=original	!	!	!	!	!
=18	=18	=18	=18	=18	=18	=18	=18	=18	=18
2.F\	Do-	2.F\	Do-	2.G/	Do-	2.d\	do-	2.b\	Do-
4F\	-mi-	4F\	-mi-	4G/	-mi-	4d\	-mi-	4b\	-mi-
2C/	-ni	2C/	-ni	2G/	-ni	2e\	-ni	2cc\	-ni
=19	=19	=19	=19	=19	=19	=19	=19	=19	=19
1.r	.	1.r	.	1.G/	qui	(2e\	qui	2cc\	qui
.	.	.	.	.	.	2d\	.	2b\	.
.	.	.	.	.	.	2f\)	.	2dd\	.
=20	=20	=20	=20	=20	=20	=20	=20	=20	=20
2r	.	2r	.	2G/	ve-	2f\	ve-	2dd\	ve-
2r	.	2r	.	2G/	-nit	2e\	-nit	2cc\	-nit
2C/	in	2C/	in	2c\	in	2g\	in	2ee\	in
=21	=21	=21	=21	=21	=21	=21	=21	=21	=21
2.C/	no-	2.C/	no-	2.c\	no-	2.g\	no-	2.ee\	no-
4D/	-mi-	4D/	-mi-	4B\	-mi-	4f\	-mi-	4dd\	-mi-
2E/	-ne	2E/	-ne	2c\	-ne	2e\	-ne	2cc\	-ne
=22	=22	=22	=22	=22	=22	=22	=22	=22	=22
.	.	.	.	.	.	8qqb/	.	.	.
2F\	Do-	2F\	Do-	4c\	Do-	4a\	Do-	4ff\	do-
.	.	.	.	4d\	.	8g\L	.	8ee\L	.
.	.	.	.	.	.	8f\J	.	8dd\J	.
2G\	.	2G\	.	2c\	.	2e\	.	2cc\	.
2GG/	.	2GG/	.	2B\	-mi-	2d\	-mi-	2b\	-mi-
=23	=23	=23	=23	=23	=23	=23	=23	=23	=23
2C/	.	2C/	.	1c\,	-ni	1e\	-ni	1cc\	-ni
4E/	.	4E/	.	.	.	.	.	.	.
4G/	-mi-	4G/	-mi-	.	.	.	.	.	.
4c\	-ni	4c\	-ni	2c\	in	2g\	in	2ee\	in
4c\	in	4c\	in	.	.	.	.	.	.
!	!	!LO:LB:g=original	!	!	!	!LO:LB:g=original	!	!LO:LB:g=original	!
=24	=24	=24	=24	=24	=24	=24	=24	=24	=24
2.C/	no-	2.C/	no-	2.c\	no-	2.g\	no-	2.ee\	no-
4D/	-mi-	4D/	-mi-	4B\	-mi-	4f\	-mi-	4dd\	-mi-
2E/	-ne	2E/	-ne	2c\	-ne	2e\	-n	2cc\	-ne
=25	=25	=25	=25	=25	=25	=25	=25	=25	=25
.	.	.	.	.	.	8qqb/	.	.	.
2F\	Do-	2F\	Do-	4c\	Do-	4a\	Do-	4ff\	Do-
.	.	.	.	4d\	.	8g\L	.	8ee\L	.
.	.	.	.	.	.	8f\J	.	8dd\J	.
2G\	.	2G\	.	2c\	.	2e\	.	2cc\	.
2GG/	-mi-	2GG/	-mi-	2B\	-mi-	2d\	-mi-	2b\	-mi-
!LO:LB:g=original	!	!	!	!	!	!	!	!	!
=26	=26	=26	=26	=26	=26	=26	=26	=26	=26
2C/	-ni	2C/	-ni	2c,\	-ni	2e\	-ni	2cc\	-ni
2E\	be-	2E\	be-	2G/	be-	2e\	be-	2cc\	be-
2G\	-ne-	2G\	-ne-	2G/	-ne-	2g\	-ne-	2ee\	-ne-
!	!	!	!	!LO:LB:g=original	!	!	!	!	!
=27	=27	=27	=27	=27	=27	=27	=27	=27	=27
2E\	-di-	2E\	-ci-	2G/	-di-	2e\	-di-	2cc\	-di-
2C\	-ctus	2C/	-ctus	2G/	-ctus	2g\	-ctus	2ee\	-ctus
2r	.	2r	.	2r	.	2r	.	2r	.
!LO:LB:g=original	!	!LO:LB:g=original	!	!	!	!LO:LB:g=original	!	!LO:LB:g=original	!
=28||	=28||	=28||	=28||	=28||	=28||	=28||	=28||	=28||	=28||
*M3/4	*	*M3/4	*	*M3/4	*	*M3/4	*	*M3/4	*
!	!	!LO:TX:a:i:t=and&colon;	!	!LO:TX:a:i:t=And&colon;	!	!	!	!	!
4C/	O-	4C/	O-	4G/	O-	4e\	O-	4cc\	O-
4C/	-san-	4C/	-san-	4G/	-san-	4e\	-san-	4cc\	-san-
8BB/	-na	8BB/	-na	8G/	-na	8f\	-na	8dd\	-na
8BB/	o-	8BB/	o-	8G/	O-	8f\	o-	8dd\	o-
=29	=29	=29	=29	=29	=29	=29	=29	=29	=29
2C/	-san-	2C/	-san-	2G/	-san-	2g\	-san-	2ee\	-san-
4GG/	-na	4GG/	-na	4B\	-na	4f\	-na	4dd\	-na
=30	=30	=30	=30	=30	=30	=30	=30	=30	=30
4C/	in	4C/	in	4G/	in	8g\L	in	8ee\L	in
.	.	.	.	.	.	8e\J	.	8cc\J	.
4F/	ex-	4F/	ex-	4A/	ex-	8a\L	ex-	8ff\L	ex-
.	.	.	.	.	.	8f\J	.	8dd\J	.
4G/	-cel-	4G/	-cel-	4G/	-cel-	8e\L	-cel-	8cc\L	-cel-
.	.	.	.	.	.	8d\J	.	8b\J	.
=31	=31	=31	=31	=31	=31	=31	=31	=31	=31
2.C/	-sis	2.C/	-sis	2.G/	-sis	2.e\	-sis	2.cc\	-sis
=32	=32	=32	=32	=32	=32	=32	=32	=32	=32
4G\	o-	4G\	o-	4G/	O-	4d\	O-	4b\	o-
4BB/	-sa(n)-	4BB/	-san-	4G/	-san-	4d\	-san-	4b\	-san-
8D/	-na	8D/	-na	8F#X/	-na	8d\	-na	8b\	-na
8D/	o-	8D/	o-	8F#/	O-	8d\	o-	8b\	o-
=33	=33	=33	=33	=33	=33	=33	=33	=33	=33
2GG/	-san-	2GG/	-san-	2G/	-san-	2d\	-san-	2b\	-san-
4D/	-na	4D/	-na	4G/	-na	4d\	-na	4a\	-na
=34	=34	=34	=34	=34	=34	=34	=34	=34	=34
4GG/	in	4GG/	in	4G/	in	4d\	in	4b\	in
4C/	ex-	4C/	ex-	4A/	ex-	4e\	ex-	4cc\	ex-
4D/	-cel-	4D/	-cel-	4G/	-cel-	4d\	-cel-	4a\	-cel-
!	!	!	!	!	!	!	!	!LO:LB:g=original	!
=35	=35	=35	=35	=35	=35	=35	=35	=35	=35
2.GG/	-sis	2.GG/	-sis	2.G/	-sis	2.d\	-sis	2.b\	-sis
!LO:LB:g=original	!	!LO:LB:g=original	!	!	!	!LO:LB:g=original	!	!	!
=36	=36	=36	=36	=36	=36	=36	=36	=36	=36
4C/	o-	4C/	o-	4e\	o-	4g\	[o-	4cc\	o-
4E/	-san-	4E/	-san-	4e\	-san-	4g\	-sa]n-	8ee\L	-san-
.	.	.	.	.	.	.	.	8cc\J	.
4G/	-na	4G\	-na	4d\	-na	4g\	-na	4gg\	-na
=37	=37	=37	=37	=37	=37	=37	=37	=37	=37
*	*ij	*	*ij	*	*ij	*	*ij	*	*ij
4C/	o-	4C/	o-	4e\	o-	4g\	o-	4cc\	o-
4E/	-san-	4E/	-san-	4e\	-san-	4g\	-san-	8ee\L	-san-
.	.	.	.	.	.	.	.	8cc\J	.
4GG/	-na	4GG/	-na	4d\	-na	4g\	-na	4g/	-na
*	*Xij	*	*Xij	*	*Xij	*	*Xij	*	*Xij
=38	=38	=38	=38	=38	=38	=38	=38	=38	=38
(4C/	in	4C/	in	2e\	in	2g\	in	4cc\	in
4E/)	.	4E/	.	.	.	.	.	8ee\L	ex-
.	.	.	.	.	.	.	.	8cc\J	.
4G/	ex-	4G/	ex-	4d\	ex-	4g\	ex-	4gg\	.
=39	=39	=39	=39	=39	=39	=39	=39	=39	=39
(4C/	-cel-	4C/	-cel-	2e\	-cel-	2g\	-cel-	4cc\	-cel-
4E/)	.	4E/	.	.	.	.	.	4ee\	.
4GG/	-sis	4GG/	-sis	4d\	-sis	4g\	-sis	4g/	-sis
=40	=40	=40	=40	=40	=40	=40	=40	=40	=40
4C/	o-	4C/	o-	4G/	o-	4e\	o-	4cc\	o-
4C/	-sa(n)-	4C/	-san-	4G/	-sa(n)-	4e\	-san-	4cc\	-san-
4C/	-na	4C/	-na	4G/	-na	4e\	-na	4cc\	-na
=41	=41	=41	=41	=41	=41	=41	=41	=41	=41
2BB/	in	2BB/	in	2G/	in	2f\	in	2dd\	in
4C/	ex-	4C/	ex-	4G/	ex-	4e\	ex-	4cc\	ex-
=42	=42	=42	=42	=42	=42	=42	=42	=42	=42
4F\	-cel-	4F\	-cel-	2.G/	-cel-	2.d\	-cel-	4cc\	-cel-
4G\	.	4G\	.	.	.	.	.	2b\	.
4GG/	.	4GG/	.	.	.	.	.	.	.
=43	=43	=43	=43	=43	=43	=43	=43	=43	=43
2.C/	-sis	2.C/	-sis	2.G/	-sis	2.e\	-sis	2.cc\	-sis
==	==	==	==	==	==	==	==	==	==
*-	*-	*-	*-	*-	*-	*-	*-	*-	*-
!!!system-decoration: [(s1,s2,s3,s4,s5)]
!!!EED: Andrzej Borzym
!!!EEV: 2021-08-07
!!!RDF**kern: > = above
!!!RDF**kern: < = below
!!!ENC: Anastazja Marusiak
!!!END: 2021-07-14
